packages/webapp/public/images/template-logos/salesforce-sandbox.svg

<svg width="62" height="62" viewBox="0 0 62 62" fill="none" xmlns="http://www.w3.org/2000/svg">
<mask id="mask0_496_1258" style="mask-type:luminance" maskUnits="userSpaceOnUse" x="9" y="16" width="44" height="31">
<path d="M53 16H9V46.7838H53V16Z" fill="white"/>
</mask>
<g mask="url(#mask0_496_1258)">
<mask id="mask1_496_1258" style="mask-type:luminance" maskUnits="userSpaceOnUse" x="9" y="16" width="44" height="31">
<path d="M9.01099 16.0811H52.8504V46.7041H9.01099V16.0811Z" fill="#00A1E0"/>
</mask>
<g mask="url(#mask1_496_1258)">
<path fill-rule="evenodd" clip-rule="evenodd" d="M27.2118 19.4329C28.6276 17.9598 30.5959 17.0476 32.7727 17.0476C35.6738 17.0476 38.1872 18.6593 39.5409 21.0607C40.7427 20.5235 42.045 20.2462 43.3603 20.2467C48.5827 20.2467 52.8229 24.5178 52.8229 29.7878C52.8229 35.0578 48.5827 39.3291 43.3603 39.3291C42.7237 39.3291 42.0999 39.2651 41.4908 39.1443C40.3073 41.2553 38.0427 42.6894 35.4635 42.6894C34.4135 42.6912 33.3782 42.4534 32.4343 41.9943C31.2325 44.815 28.4374 46.796 25.1814 46.796C21.7808 46.796 18.8961 44.6522 17.7839 41.6394C17.2882 41.7437 16.7834 41.7967 16.2785 41.7949C12.2322 41.7949 8.95972 38.4748 8.95972 34.3975C8.95972 31.6573 10.4341 29.272 12.62 27.9842C12.1554 26.9159 11.9176 25.7635 11.9176 24.5988C11.9176 19.8926 15.7371 16.0889 20.4437 16.0889C23.2003 16.0889 25.6661 17.4024 27.2136 19.4413" fill="#00A1E0"/>
</g>
<path fill-rule="evenodd" clip-rule="evenodd" d="M15.3494 32.0063C15.3219 32.0777 15.3603 32.0923 15.3676 32.1051C15.4499 32.1655 15.5341 32.2075 15.6183 32.2569C16.0664 32.4929 16.4889 32.5624 16.9298 32.5624C17.8298 32.5624 18.3895 32.0831 18.3895 31.313V31.2984C18.3895 30.5868 17.7566 30.3271 17.1676 30.1405L17.0908 30.1167C16.6426 29.9722 16.2584 29.846 16.2584 29.5515V29.5369C16.2584 29.2863 16.4835 29.0997 16.8329 29.0997C17.2188 29.0997 17.6798 29.2295 17.9743 29.3923C17.9743 29.3923 18.0621 29.449 18.0932 29.3649C18.1115 29.3192 18.2615 28.9167 18.2779 28.871C18.2944 28.8234 18.2651 28.7887 18.2341 28.7704C17.8956 28.5637 17.4273 28.4229 16.9444 28.4229H16.8548C16.0317 28.4229 15.4554 28.9222 15.4554 29.6338V29.6484C15.4554 30.4002 16.0902 30.6454 16.6847 30.8155L16.7798 30.8448C17.2115 30.9765 17.5847 31.0917 17.5847 31.3954V31.41C17.5847 31.6899 17.3414 31.8966 16.9518 31.8966C16.8 31.8966 16.317 31.8947 15.7938 31.5636C15.7298 31.5271 15.6932 31.4996 15.6438 31.4704C15.6182 31.4539 15.5542 31.4264 15.5268 31.5106L15.3494 32.0063ZM28.5162 32.0045C28.4887 32.0758 28.5271 32.0905 28.5363 32.1033C28.6186 32.1636 28.7028 32.2075 28.7851 32.2551C29.2332 32.4929 29.6558 32.5606 30.0984 32.5606C30.9966 32.5606 31.5563 32.0831 31.5563 31.313V31.2966C31.5563 30.585 30.9253 30.3252 30.3344 30.1405L30.2576 30.1149C29.8113 29.9704 29.4253 29.8442 29.4253 29.5515V29.535C29.4253 29.2844 29.6521 29.0997 29.9997 29.0997C30.3857 29.0997 30.8448 29.2277 31.143 29.3905C31.143 29.3905 31.2289 29.4472 31.2619 29.3631C31.2783 29.3173 31.4283 28.9149 31.443 28.8692C31.4612 28.8216 31.4301 28.7869 31.4009 28.7686C31.0625 28.5619 30.5942 28.4229 30.1113 28.4229H30.0216C29.1966 28.4229 28.6222 28.9204 28.6222 29.632V29.6484C28.6222 30.3984 29.257 30.6435 29.8497 30.8137L29.9448 30.8429C30.3783 30.9765 30.7515 31.0917 30.7515 31.3935V31.41C30.7515 31.688 30.5082 31.8966 30.1186 31.8966C29.9649 31.8966 29.4802 31.8929 28.9589 31.5618C28.8948 31.5252 28.8582 31.4996 28.8106 31.4685C28.7942 31.4594 28.7174 31.4283 28.6918 31.5106L28.5143 32.0027M37.5087 30.4935C37.5087 30.9289 37.4264 31.2728 37.2691 31.5161C37.1099 31.7557 36.8702 31.8746 36.5373 31.8746C36.2026 31.8746 35.9648 31.7575 35.8075 31.5179C35.6502 31.2765 35.5715 30.9307 35.5715 30.4954C35.5715 30.06 35.6502 29.7198 35.8075 29.4783C35.9648 29.2405 36.2007 29.1253 36.5373 29.1253C36.8721 29.1253 37.1099 29.2423 37.2691 29.4783C37.4282 29.7198 37.5087 30.0582 37.5087 30.4935ZM38.2586 29.6887C38.1855 29.4381 38.0702 29.2204 37.9184 29.0356C37.7647 28.8527 37.5709 28.7046 37.3404 28.5966C37.1117 28.4905 36.841 28.4356 36.5355 28.4356C36.2282 28.4356 35.9593 28.4905 35.7288 28.5966C35.5002 28.7046 35.3044 28.8527 35.1526 29.0356C34.999 29.2204 34.8837 29.4381 34.8106 29.6887C34.7374 29.9375 34.699 30.2082 34.699 30.4954C34.699 30.7844 34.7374 31.0551 34.8106 31.3039C34.8837 31.5527 34.999 31.7722 35.1526 31.9569C35.3044 32.1399 35.5002 32.2862 35.7288 32.3905C35.9593 32.4966 36.2301 32.5496 36.5355 32.5496C36.8392 32.5496 37.1099 32.4966 37.3386 32.3905C37.5672 32.2862 37.763 32.1399 37.9166 31.9569C38.0684 31.7722 38.1836 31.5527 38.2586 31.3039C38.3318 31.0551 38.3684 30.7844 38.3684 30.4954C38.3684 30.2082 38.3318 29.9375 38.2586 29.6887ZM44.4305 31.7521C44.4067 31.6789 44.3353 31.7063 44.3353 31.7063C44.2256 31.7484 44.1086 31.7868 43.986 31.8051C43.8598 31.8252 43.7207 31.8362 43.5744 31.8362C43.2122 31.8362 42.9214 31.7264 42.7147 31.5124C42.508 31.2984 42.3909 30.9545 42.3927 30.4862C42.3946 30.06 42.497 29.7417 42.6817 29.4966C42.8628 29.2551 43.1446 29.1289 43.5141 29.1289C43.8232 29.1289 44.061 29.1655 44.3098 29.2423C44.3098 29.2423 44.3683 29.268 44.3957 29.1911C44.4616 29.0082 44.511 28.8783 44.5823 28.6789C44.6006 28.6204 44.553 28.5966 44.5347 28.5893C44.4378 28.5527 44.2073 28.4905 44.0336 28.4631C43.8708 28.4393 43.6823 28.4265 43.4683 28.4265C43.1537 28.4265 42.872 28.4796 42.6323 28.5875C42.3927 28.6936 42.1897 28.8417 42.0287 29.0247C41.8677 29.2094 41.7451 29.4289 41.6628 29.6777C41.5805 29.9265 41.5403 30.199 41.5403 30.4862C41.5403 31.1082 41.7068 31.613 42.0397 31.9825C42.3708 32.3539 42.872 32.5405 43.5232 32.5405C43.9073 32.5405 44.3025 32.4618 44.586 32.3502C44.586 32.3502 44.6409 32.3246 44.6171 32.2606L44.4305 31.7521ZM45.7457 30.0746C45.7805 29.8332 45.8463 29.632 45.9506 29.4765C46.1079 29.2369 46.3438 29.107 46.6786 29.107C47.0115 29.107 47.2329 29.2387 47.3902 29.4765C47.4945 29.6338 47.5402 29.8423 47.5585 30.0746H45.7366H45.7457ZM48.2755 29.5442C48.2115 29.3027 48.0524 29.0594 47.9499 28.9478C47.7853 28.7722 47.6261 28.6497 47.467 28.582C47.2365 28.4832 46.9878 28.4338 46.7372 28.4338C46.4207 28.4338 46.1317 28.4869 45.8975 28.5966C45.6652 28.7064 45.4677 28.8564 45.3122 29.043C45.1585 29.2295 45.0414 29.4509 44.9683 29.7033C44.8933 29.9539 44.8567 30.2265 44.8567 30.5137C44.8567 30.8082 44.8951 31.0807 44.972 31.3258C45.0488 31.5746 45.1732 31.7923 45.3415 31.9734C45.5079 32.1545 45.7219 32.2972 45.9799 32.3959C46.2378 32.4965 46.5488 32.5478 46.9036 32.5459C47.639 32.5441 48.0267 32.3795 48.1841 32.2917C48.2115 32.2752 48.239 32.2478 48.206 32.1691L48.0396 31.7045C48.014 31.635 47.9445 31.6606 47.9445 31.6606C47.7615 31.7283 47.5036 31.8508 46.8999 31.849C46.5048 31.8472 46.2122 31.7319 46.0293 31.549C45.8427 31.3624 45.7494 31.0899 45.7347 30.7021L48.281 30.7039C48.281 30.7039 48.3469 30.7039 48.3542 30.638C48.3579 30.6106 48.442 30.1167 48.2792 29.5442H48.2755ZM25.3882 30.0746C25.4248 29.8332 25.4906 29.632 25.5949 29.4765C25.7503 29.2369 25.9882 29.107 26.3229 29.107C26.6558 29.107 26.8772 29.2387 27.0345 29.4765C27.1388 29.6338 27.1845 29.8423 27.2028 30.0746H25.3808H25.3882ZM27.9198 29.5442C27.8558 29.3027 27.6967 29.0594 27.5942 28.9478C27.4296 28.7722 27.2704 28.6497 27.1095 28.582C26.879 28.4832 26.6321 28.4338 26.3815 28.4338C26.065 28.4338 25.776 28.4869 25.5418 28.5966C25.3077 28.7064 25.1119 28.8564 24.9565 29.043C24.8028 29.2295 24.6858 29.4509 24.6126 29.7033C24.5376 29.9539 24.501 30.2265 24.501 30.5137C24.501 30.8082 24.5394 31.0807 24.6162 31.3258C24.693 31.5746 24.8175 31.7923 24.9839 31.9734C25.1522 32.1545 25.3662 32.2972 25.6242 32.3959C25.8803 32.4965 26.1894 32.5478 26.5479 32.5459C27.2814 32.5441 27.6692 32.3795 27.8265 32.2917C27.854 32.2752 27.8814 32.2478 27.8485 32.1691L27.6821 31.7045C27.6564 31.635 27.5869 31.6606 27.5869 31.6606C27.404 31.7283 27.1461 31.8508 26.5424 31.849C26.1491 31.8472 25.8547 31.7319 25.6717 31.549C25.4851 31.3624 25.3918 31.0899 25.3772 30.7021L27.9235 30.7039C27.9235 30.7039 27.9894 30.7039 27.9967 30.638C28.0003 30.6106 28.0845 30.1167 27.9216 29.5442H27.9198ZM19.8931 31.7356C19.7925 31.6551 19.7797 31.6368 19.7468 31.5838C19.6956 31.5069 19.67 31.3953 19.67 31.2545C19.67 31.0313 19.745 30.8704 19.8968 30.7624C19.895 30.7624 20.1163 30.5722 20.6358 30.5795C20.8663 30.5832 21.0968 30.6033 21.3255 30.638V31.7941C21.3255 31.7941 21.0035 31.8618 20.6395 31.8838C20.1218 31.9149 19.8931 31.7356 19.895 31.7356H19.8931ZM20.9047 29.9466C20.8023 29.9393 20.6688 29.9356 20.5078 29.9356C20.2901 29.9356 20.0798 29.9631 19.884 30.0161C19.6846 30.0692 19.5054 30.1515 19.3535 30.2612C19.1999 30.371 19.0737 30.5155 18.984 30.6801C18.8944 30.8484 18.8487 31.046 18.8487 31.2673C18.8487 31.4941 18.8871 31.688 18.9639 31.8472C19.0407 32.0063 19.1541 32.1435 19.2968 32.2459C19.4377 32.3484 19.6114 32.4252 19.8145 32.4691C20.0139 32.5148 20.2389 32.5386 20.4877 32.5386C20.7492 32.5386 21.0072 32.5167 21.2596 32.4746C21.4736 32.438 21.6876 32.3959 21.8998 32.3502C21.984 32.3301 22.0791 32.3045 22.0791 32.3045C22.1413 32.288 22.1358 32.2222 22.1358 32.2222L22.134 29.9009C22.134 29.3923 21.9986 29.0119 21.7297 28.7796C21.4627 28.5454 21.0712 28.4283 20.5627 28.4283C20.3724 28.4283 20.0651 28.4539 19.8822 28.4905C19.8822 28.4905 19.3279 28.5985 19.0974 28.7777C19.0974 28.7777 19.048 28.8088 19.0755 28.8783L19.2566 29.3612C19.2785 29.4253 19.3389 29.4033 19.3389 29.4033C19.3389 29.4033 19.359 29.396 19.3809 29.3814C19.8694 29.1161 20.4877 29.1234 20.4877 29.1234C20.762 29.1234 20.9761 29.1802 21.1169 29.2881C21.2559 29.396 21.3273 29.557 21.3273 29.8954V30.0015C21.1096 29.9704 20.9084 29.9521 20.9084 29.9521L20.9047 29.9466ZM41.3738 28.6369C41.3775 28.6277 41.3793 28.6186 41.3793 28.6094C41.3793 28.6003 41.3775 28.5911 41.3738 28.582C41.3702 28.5728 41.3647 28.5655 41.3592 28.56C41.3519 28.5527 41.3446 28.5472 41.3354 28.5454C41.2915 28.5289 41.0757 28.4832 40.9111 28.4722C40.5909 28.4521 40.4135 28.5052 40.2543 28.5783C40.097 28.6478 39.9214 28.7631 39.8263 28.8948L39.8245 28.5856C39.8245 28.5436 39.7952 28.5088 39.7513 28.5088H39.1019C39.058 28.5088 39.0288 28.5436 39.0288 28.5856V32.374C39.0288 32.3941 39.0361 32.4124 39.0507 32.427C39.0654 32.4417 39.0855 32.4508 39.1056 32.4508H39.7733C39.7934 32.4508 39.8135 32.4417 39.8263 32.427C39.8409 32.4124 39.8501 32.3941 39.8501 32.374V30.4716C39.8501 30.2173 39.8775 29.9631 39.9343 29.8039C39.9891 29.6466 40.0641 29.5204 40.1556 29.4307C40.2434 29.3429 40.3513 29.2789 40.4702 29.2423C40.5818 29.2094 40.697 29.193 40.8122 29.193C40.9458 29.193 41.0903 29.2277 41.0903 29.2277C41.1397 29.2332 41.1671 29.2039 41.1836 29.1582C41.2275 29.043 41.3519 28.6954 41.3757 28.6259" fill="#FFFFFE"/>
<path fill-rule="evenodd" clip-rule="evenodd" d="M35.1416 26.888C35.0593 26.8623 34.9769 26.8422 34.8909 26.8276C34.7775 26.8093 34.6605 26.8002 34.5452 26.802C34.0861 26.802 33.7239 26.9319 33.4697 27.188C33.2154 27.4422 33.0435 27.83 32.9575 28.3404L32.9263 28.5123H32.3502C32.3502 28.5123 32.2788 28.5105 32.2641 28.5873L32.1691 29.116C32.1636 29.1672 32.1855 29.1983 32.2532 29.1983H32.8148L32.244 32.3793C32.2001 32.6354 32.1489 32.8476 32.0922 33.0067C32.0355 33.1641 31.9825 33.283 31.9148 33.3671C31.8489 33.4512 31.7886 33.5116 31.6825 33.5482C31.5947 33.5775 31.494 33.5903 31.3825 33.5903C31.3203 33.5903 31.2398 33.5811 31.1794 33.5683C31.1191 33.5555 31.0861 33.5427 31.0422 33.5244C31.0422 33.5244 30.9764 33.4988 30.9489 33.5647C30.9288 33.6195 30.7788 34.0311 30.7605 34.0823C30.7441 34.1317 30.7679 34.172 30.8008 34.1829C30.8758 34.2104 30.9307 34.2268 31.0331 34.2506C31.174 34.2835 31.2928 34.2854 31.4044 34.2854C31.6385 34.2854 31.8526 34.2525 32.03 34.1903C32.2075 34.1244 32.3611 34.0128 32.4983 33.861C32.6465 33.6982 32.7398 33.5262 32.8294 33.2921C32.9172 33.0616 32.9922 32.7744 33.0525 32.4379L33.6251 29.1983H34.4629C34.4629 29.1983 34.5343 29.2001 34.5489 29.1233L34.6422 28.5946C34.6495 28.5453 34.6275 28.5123 34.5598 28.5123H33.7477C33.7513 28.494 33.7879 28.2087 33.8812 27.9398C33.9214 27.8245 33.9965 27.7312 34.0605 27.669C34.119 27.6087 34.1922 27.563 34.2727 27.5355C34.3605 27.5081 34.4538 27.4953 34.5452 27.4971C34.622 27.4971 34.6971 27.5062 34.7538 27.5172C34.8324 27.5337 34.8635 27.5428 34.8836 27.5501C34.9678 27.5739 34.9787 27.5501 34.9952 27.5099L35.1891 26.9758C35.2092 26.9191 35.1599 26.8953 35.1416 26.888ZM23.7838 32.3866C23.7838 32.4287 23.7527 32.4635 23.7107 32.4635H23.0375C22.9936 32.4635 22.9644 32.4287 22.9644 32.3866V26.9593C22.9644 26.9172 22.9936 26.8825 23.0375 26.8825H23.7107C23.7527 26.8825 23.7838 26.9172 23.7838 26.9593V32.3866Z" fill="#FFFFFE"/>
</g>
</svg>

<svg xmlns="http://www.w3.org/2000/svg" width="62" height="62" fill="none"><mask id="A" maskUnits="userSpaceOnUse" x="9" y="16" width="44" height="31"><path d="M53 16H9v30.784h44V16z" fill="#fff"/></mask><g mask="url(#A)"><mask id="B" maskUnits="userSpaceOnUse" x="9" y="16" width="44" height="31"><path d="M9.011 16.081H52.85v30.623H9.011V16.081z" fill="#00a1e0"/></mask><g mask="url(#B)"><path fill-rule="evenodd" d="M27.212 19.433c1.416-1.473 3.384-2.385 5.561-2.385 2.901 0 5.414 1.612 6.768 4.013 1.202-.537 2.504-.814 3.819-.814 5.222 0 9.463 4.271 9.463 9.541s-4.24 9.541-9.463 9.541c-.637 0-1.26-.064-1.87-.185-1.184 2.111-3.448 3.545-6.027 3.545-1.05.002-2.085-.236-3.029-.695-1.202 2.821-3.997 4.802-7.253 4.802-3.401 0-6.285-2.144-7.398-5.157a7.19 7.19 0 0 1-1.505.155c-4.046 0-7.319-3.32-7.319-7.397a7.43 7.43 0 0 1 3.66-6.413c-.465-1.068-.702-2.221-.702-3.385 0-4.706 3.819-8.51 8.526-8.51a8.49 8.49 0 0 1 6.77 3.352" fill="#00a1e0"/></g><path fill-rule="evenodd" d="M15.349 32.006c-.027.071.011.086.018.099.082.06.167.102.251.152.448.236.871.305 1.312.305.9 0 1.46-.479 1.46-1.249v-.015c0-.712-.633-.971-1.222-1.158l-.077-.024c-.448-.145-.832-.271-.832-.565v-.015c0-.251.225-.437.574-.437a2.6 2.6 0 0 1 1.141.293s.088.057.119-.027l.185-.494c.017-.048-.013-.082-.044-.101-.338-.207-.807-.348-1.29-.348h-.09c-.823 0-1.399.499-1.399 1.211v.015c0 .752.635.997 1.229 1.167l.095.029c.432.132.805.247.805.551v.015c0 .28-.243.487-.633.487-.152 0-.635-.002-1.158-.333l-.15-.093c-.026-.017-.09-.044-.117.04l-.177.496zm13.167-.002c-.027.071.011.086.02.099.082.06.166.104.249.152.448.238.871.306 1.313.306.898 0 1.458-.477 1.458-1.248v-.016c0-.712-.631-.971-1.222-1.156l-.077-.026c-.446-.144-.832-.271-.832-.563v-.017c0-.251.227-.435.574-.435a2.62 2.62 0 0 1 1.143.291s.086.057.119-.027l.181-.494c.018-.048-.013-.082-.042-.101-.338-.207-.807-.346-1.29-.346h-.09c-.825 0-1.399.498-1.399 1.209v.016c0 .75.635.995 1.227 1.165l.095.029c.433.134.807.249.807.551v.017c0 .278-.243.487-.633.487a2.12 2.12 0 0 1-1.16-.335l-.148-.093c-.016-.009-.093-.04-.119.042l-.178.492m8.994-1.509c0 .435-.082.779-.24 1.023s-.399.358-.732.358-.573-.117-.73-.357-.236-.587-.236-1.023.079-.776.236-1.017.393-.353.73-.353.573.117.732.353c.159.241.24.58.24 1.015zm.75-.805a1.82 1.82 0 0 0-.34-.653c-.154-.183-.347-.331-.578-.439s-.499-.161-.805-.161-.576.055-.807.161-.424.256-.576.439-.269.402-.342.653-.112.52-.112.807a2.86 2.86 0 0 0 .112.808 1.81 1.81 0 0 0 .342.653 1.61 1.61 0 0 0 .576.434c.23.106.501.159.807.159s.574-.053.803-.159a1.63 1.63 0 0 0 .578-.434 1.87 1.87 0 0 0 .342-.653 2.86 2.86 0 0 0 .11-.808c0-.287-.037-.558-.11-.807zm6.172 2.063c-.024-.073-.095-.046-.095-.046-.11.042-.227.081-.349.099s-.265.031-.412.031c-.362 0-.653-.11-.86-.324s-.324-.558-.322-1.026c.002-.426.104-.744.289-.99s.463-.368.832-.368c.309 0 .547.037.796.113 0 0 .058.026.086-.051l.187-.512c.018-.058-.029-.082-.048-.09-.097-.037-.327-.099-.501-.126a3.94 3.94 0 0 0-.565-.037 2.03 2.03 0 0 0-.836.161 1.73 1.73 0 0 0-.604.437c-.161.185-.284.404-.366.653s-.122.521-.122.808c0 .622.166 1.127.499 1.496s.832.558 1.483.558a3.06 3.06 0 0 0 1.063-.19s.055-.026.031-.09l-.187-.508zm1.315-1.677c.035-.241.101-.443.205-.598.157-.24.393-.37.728-.37s.554.132.712.37c.104.157.15.366.168.598h-1.822.009zm2.53-.53c-.064-.241-.223-.485-.326-.596-.165-.176-.324-.298-.483-.366-.23-.099-.479-.148-.73-.148-.317 0-.605.053-.84.163s-.43.26-.585.446a1.83 1.83 0 0 0-.344.66c-.075.251-.112.523-.112.81 0 .294.038.567.115.812a1.66 1.66 0 0 0 1.008 1.07c.258.101.569.152.924.15.735-.002 1.123-.166 1.281-.254.027-.017.055-.044.022-.123l-.166-.465c-.026-.069-.095-.044-.095-.044-.183.068-.441.19-1.045.188-.395-.002-.688-.117-.871-.3s-.28-.459-.295-.847l2.546.002s.066 0 .073-.066c.004-.027.088-.521-.075-1.094h-.004zm-22.887.53c.037-.241.102-.443.207-.598.155-.24.393-.37.728-.37s.554.132.712.37c.104.157.15.366.168.598h-1.822.007zm2.532-.53c-.064-.241-.223-.485-.326-.596-.165-.176-.324-.298-.485-.366-.23-.099-.477-.148-.728-.148-.316 0-.605.053-.84.163a1.68 1.68 0 0 0-.585.446c-.154.187-.271.408-.344.66s-.112.523-.112.81c0 .294.038.567.115.812a1.68 1.68 0 0 0 1.008 1.07c.256.101.565.152.924.15.734-.002 1.121-.166 1.279-.254.027-.017.055-.044.022-.123l-.166-.465c-.026-.069-.095-.044-.095-.044-.183.068-.441.19-1.044.188-.393-.002-.688-.117-.871-.3s-.28-.459-.295-.847l2.546.002s.066 0 .073-.066c.004-.027.088-.521-.075-1.094h-.002zm-8.027 2.191c-.101-.081-.113-.099-.146-.152-.051-.077-.077-.189-.077-.329 0-.223.075-.384.227-.492-.002 0 .22-.19.739-.183a5.15 5.15 0 0 1 .69.059v1.156s-.322.068-.686.09c-.518.031-.746-.148-.745-.148h-.002zm1.012-1.789l-.397-.011a2.39 2.39 0 0 0-.624.081 1.61 1.61 0 0 0-.53.245 1.25 1.25 0 0 0-.369.419c-.09.168-.135.366-.135.587 0 .227.038.421.115.58a1.05 1.05 0 0 0 .333.399c.141.102.315.179.518.223s.424.07.673.07a4.69 4.69 0 0 0 .772-.064l.64-.124.179-.046c.062-.017.057-.082.057-.082l-.002-2.321c0-.509-.135-.889-.404-1.121s-.659-.351-1.167-.351a4.2 4.2 0 0 0-.68.062s-.554.108-.785.287c0 0-.049.031-.022.101l.181.483c.022.064.082.042.082.042s.02-.007.042-.022c.488-.265 1.107-.258 1.107-.258.274 0 .488.057.629.165s.21.269.21.607v.106l-.419-.049-.004-.006zm20.469-1.31c.004-.009.005-.018.005-.027s-.002-.018-.005-.027-.009-.017-.015-.022-.015-.013-.024-.015c-.044-.017-.26-.062-.424-.073-.32-.02-.498.033-.657.106s-.333.185-.428.317l-.002-.309c0-.042-.029-.077-.073-.077h-.649c-.044 0-.073.035-.073.077v3.788c0 .02.007.038.022.053s.035.024.055.024h.668c.02 0 .04-.009.053-.024s.024-.033.024-.053v-1.902c0-.254.027-.508.084-.668s.13-.284.221-.373a.76.76 0 0 1 .315-.188 1.21 1.21 0 0 1 .342-.049 1.39 1.39 0 0 1 .278.035c.049.006.077-.024.093-.069l.192-.532" fill="#fffffe"/><path fill-rule="evenodd" d="M35.142 26.888c-.082-.026-.165-.046-.251-.06a1.99 1.99 0 0 0-.346-.026c-.459 0-.821.13-1.075.386s-.426.642-.512 1.152l-.031.172h-.576s-.071-.002-.086.075l-.095.529c-.005.051.016.082.084.082h.562l-.571 3.181c-.044.256-.095.468-.152.627s-.11.276-.177.36-.126.145-.232.181a.95.95 0 0 1-.3.042 1.08 1.08 0 0 1-.203-.022c-.06-.013-.093-.026-.137-.044 0 0-.066-.026-.093.04l-.188.518c-.016.049.007.09.04.101a1.73 1.73 0 0 0 .232.068c.141.033.26.035.371.035.234 0 .448-.033.626-.095s.331-.178.468-.329c.148-.163.242-.335.331-.569s.163-.518.223-.854l.573-3.24h.838s.071.002.086-.075l.093-.529c.007-.049-.015-.082-.082-.082h-.812c.004-.018.04-.304.133-.572a.72.72 0 0 1 .179-.271.54.54 0 0 1 .212-.134c.088-.027.181-.04.273-.038.077 0 .152.009.209.02l.13.033c.084.024.095 0 .112-.04l.194-.534c.02-.057-.029-.081-.048-.088zm-11.358 5.499c0 .042-.031.077-.073.077h-.673c-.044 0-.073-.035-.073-.077v-5.427c0-.042.029-.077.073-.077h.673c.042 0 .073.035.073.077v5.427z" fill="#fffffe"/></g></svg>
